svgs/solid/cloud-showers.svg

<svg xmlns="http://www.w3.org/2000/svg" viewBox="0 0 512 512"><!--! Font Awesome Pro 6.0.0-alpha3 by @fontawesome - https://fontawesome.com License - https://fontawesome.com/license (Commercial License) --><path d="M416 128c-.625 0-1.125 .25-1.625 .25C415.5 123 416 117.6 416 112C416 67.75 380.3 32 336 32c-24.62 0-46.25 11.25-61 28.75C256.4 24.75 219.3 0 176 0C114.1 0 64 50.13 64 112c0 7.25 .75 14.25 2.125 21.25C27.75 145.8 0 181.5 0 224c0 53 43 96 96 96h320c53 0 96-43 96-96S469 128 416 128zM200 384c-13.25 0-24 10.75-24 24v80C176 501.3 186.8 512 200 512S224 501.3 224 488v-80C224 394.8 213.3 384 200 384zM104 352c-13.25 0-24 10.75-24 24v80C80 469.3 90.75 480 104 480S128 469.3 128 456v-80C128 362.8 117.3 352 104 352zM296 352c-13.25 0-24 10.75-24 24v80c0 13.25 10.75 24 24 24S320 469.3 320 456v-80C320 362.8 309.3 352 296 352zM392 384c-13.25 0-24 10.75-24 24v80c0 13.25 10.75 24 24 24S416 501.3 416 488v-80C416 394.8 405.3 384 392 384z"/></svg>

<svg xmlns="http://www.w3.org/2000/svg" viewBox="0 0 512 512"><!-- Font Awesome Pro 6.0.0-alpha2 by @fontawesome - https://fontawesome.com License - https://fontawesome.com/license (Commercial License) --><path d="M416 128C415.375 128 414.875 128.25 414.375 128.25C415.5 123 416 117.625 416 112C416 67.75 380.25 32 336 32C311.375 32 289.75 43.25 275 60.75C256.375 24.75 219.25 0 176 0C114.125 0 64 50.125 64 112C64 119.25 64.75 126.25 66.125 133.25C27.75 145.75 0 181.5 0 224C0 277 43 320 96 320H416C469 320 512 277 512 224S469 128 416 128ZM200 384C186.75 384 176 394.75 176 408V488C176 501.25 186.75 512 200 512S224 501.25 224 488V408C224 394.75 213.25 384 200 384ZM104 352C90.75 352 80 362.75 80 376V456C80 469.25 90.75 480 104 480S128 469.25 128 456V376C128 362.75 117.25 352 104 352ZM296 352C282.75 352 272 362.75 272 376V456C272 469.25 282.75 480 296 480S320 469.25 320 456V376C320 362.75 309.25 352 296 352ZM392 384C378.75 384 368 394.75 368 408V488C368 501.25 378.75 512 392 512S416 501.25 416 488V408C416 394.75 405.25 384 392 384Z"/></svg>
